svg/proton-calendar.svg

<svg width="106" height="87" viewBox="0 0 106 87" fill="none" xmlns="http://www.w3.org/2000/svg">
<path fill-rule="evenodd" clip-rule="evenodd" d="M74.932 12.9884H0V76.1277C0 82.135 4.90606 87 10.9632 87H67.0085H48.1219V81.935C48.1219 79.3528 49.0494 76.8481 50.737 74.8864L70.0483 52.4103V52.4214C70.0371 52.4324 70.0259 52.4546 70.0036 52.4657C72.2387 49.9277 75.5243 48.3317 79.1787 48.3317H83.4478V21.4446C83.4589 16.7787 79.6481 12.9884 74.932 12.9884Z" fill="url(#paint0_radial_11089_187610)"/>
<path fill-rule="evenodd" clip-rule="evenodd" d="M70.0594 52.4217C68.1595 54.5497 67.0085 57.3536 67.0085 60.4125L67.0085 87H48.1219V81.935C48.1219 79.3528 49.0494 76.8481 50.737 74.8864L70.0483 52.4103L70.0594 52.4217Z" fill="#B8D7FF"/>
<path d="M77.6812 73.1906H81.5367C81.6932 73.8556 82.0843 74.443 82.6431 74.853C83.1907 75.2631 83.8724 75.4737 84.5653 75.4404C86.3087 75.4404 87.4598 74.4873 87.4598 73.0909C87.4598 71.6944 86.264 70.9186 83.8948 70.9186H82.3637V67.771H83.6936C85.9846 67.771 86.9233 66.9287 86.9233 65.6764C86.9233 64.424 85.9063 63.5596 84.4983 63.5596C83.8724 63.5263 83.2466 63.7258 82.7772 64.1359C82.2967 64.5459 82.0061 65.1222 81.9502 65.7429H78.2288C78.3629 63.5485 80.1063 60.401 84.4759 60.401C87.985 60.401 90.4101 62.3848 90.4101 65.1776C90.4101 66.0753 90.1307 66.9509 89.5943 67.6713C89.0579 68.3917 88.3091 68.9347 87.4486 69.2007V69.2561C88.4544 69.4334 89.3596 69.9655 89.9966 70.7524C90.6336 71.5393 90.9689 72.5256 90.9354 73.5453C90.9354 76.5709 88.1415 78.5658 84.5318 78.5658C80.6986 78.5879 77.9606 76.4268 77.6812 73.1906Z" fill="#8F69FF"/>
<path d="M97.6742 60.7017H100.479V78.3125H96.8584V64.8025L93.3716 67.152V63.5944L97.6742 60.7017Z" fill="#8F69FF"/>
<path fill-rule="evenodd" clip-rule="evenodd" d="M10.9632 0H95.0368C101.094 0 106 4.86535 106 10.8723V48.3326H83.4589V21.4454C83.4589 16.7685 79.6369 12.9884 74.932 12.9884H0V10.8723C0 4.86535 4.90606 0 10.9632 0Z" fill="url(#paint1_linear_11089_187610)"/>
<defs>
<radialGradient id="paint0_radial_11089_187610" cx="0" cy="0" r="1" gradientUnits="userSpaceOnUse" gradientTransform="translate(101.946 -72.5808) scale(216.425 183.803)">
<stop offset="0.5563" stop-color="#6D4AFF"/>
<stop offset="0.9944" stop-color="#06B8FF"/>
</radialGradient>
<linearGradient id="paint1_linear_11089_187610" x1="89.0493" y1="59.4689" x2="23.494" y2="-31.6953" gradientUnits="userSpaceOnUse">
<stop stop-color="#BFE8FF"/>
<stop offset="0.3075" stop-color="#BFABFF"/>
<stop offset="1" stop-color="#7341FF"/>
</linearGradient>
</defs>
</svg>

<svg xmlns="http://www.w3.org/2000/svg" width="106" height="87" fill="none"><path fill="url(#a)" fill-rule="evenodd" d="M74.932 12.988H0v63.14C0 82.135 4.906 87 10.963 87h56.045-18.886v-5.065c0-2.582.927-5.087 2.615-7.049L70.048 52.41v.011c-.01.011-.022.034-.044.045a12.192 12.192 0 0 1 9.175-4.134h4.269V21.445c.01-4.666-3.8-8.457-8.516-8.457Z" clip-rule="evenodd"/><path fill="#B8D7FF" fill-rule="evenodd" d="M70.06 52.422a11.966 11.966 0 0 0-3.052 7.99V87H48.123v-5.065c0-2.582.927-5.087 2.615-7.049l19.31-22.476.011.012Z" clip-rule="evenodd"/><path fill="#8F69FF" d="M77.681 73.19h3.856a2.88 2.88 0 0 0 1.106 1.663c.548.41 1.23.62 1.922.587 1.744 0 2.895-.953 2.895-2.35 0-1.396-1.196-2.171-3.565-2.171h-1.531V67.77h1.33c2.29 0 3.23-.842 3.23-2.095 0-1.252-1.018-2.116-2.426-2.116a2.424 2.424 0 0 0-1.72.576c-.481.41-.772.986-.828 1.607h-3.72c.134-2.194 1.877-5.342 6.247-5.342 3.509 0 5.934 1.984 5.934 4.777a4.17 4.17 0 0 1-.816 2.493 4.251 4.251 0 0 1-2.145 1.53v.055a4.21 4.21 0 0 1 3.487 4.29c0 3.025-2.795 5.02-6.404 5.02-3.833.022-6.571-2.14-6.85-5.375Zm19.993-12.488h2.805v17.61h-3.62v-13.51l-3.487 2.35v-3.558l4.302-2.892Z"/><path fill="url(#b)" fill-rule="evenodd" d="M10.963 0h84.074C101.094 0 106 4.865 106 10.872v37.46H83.459V21.446c0-4.677-3.822-8.457-8.527-8.457H0v-2.116C0 4.865 4.906 0 10.963 0Z" clip-rule="evenodd"/><defs><radialGradient id="a" cx="0" cy="0" r="1" gradientTransform="matrix(216.425 0 0 183.803 101.946 -72.58)" gradientUnits="userSpaceOnUse"><stop offset=".556" stop-color="#6D4AFF"/><stop offset=".994" stop-color="#06B8FF"/></radialGradient><linearGradient id="b" x1="89.049" x2="23.494" y1="59.469" y2="-31.695" gradientUnits="userSpaceOnUse"><stop stop-color="#BFE8FF"/><stop offset=".307" stop-color="#BFABFF"/><stop offset="1" stop-color="#7341FF"/></linearGradient></defs></svg>
